app/assets/images/icons/active/ipad.svg

<?xml version="1.0" encoding="UTF-8" standalone="no"?>
<svg width="32px" height="232px" viewBox="0 0 32 232" version="1.1" xmlns="http://www.w3.org/2000/svg" xmlns:xlink="http://www.w3.org/1999/xlink" xmlns:sketch="http://www.bohemiancoding.com/sketch/ns">
    <title>ipad</title>
    <description>Created with Sketch (http://www.bohemiancoding.com/sketch)</description>
    <defs></defs>
    <g id="Graphics" stroke="none" stroke-width="1" fill="none" fill-rule="evenodd" sketch:type="MSPage">
        <path d="M24.3234727,122 L7.60647266,122 C6.14547266,122 4.95947266,123.183 4.95947266,124.646 L4.95947266,146.654 C4.95947266,148.115 6.14547266,149.301 7.60647266,149.301 L24.3234727,149.301 C25.7834727,149.301 26.9674727,148.115 26.9674727,146.654 L26.9674727,124.646 C26.9674727,123.183 25.7834727,122 24.3234727,122 L24.3234727,122 L24.3234727,122 L24.3234727,122 Z M15.9634727,147.994 C14.8384727,147.994 13.9284727,147.084 13.9284727,145.957 C13.9284727,144.832 14.8384727,143.92 15.9634727,143.92 C17.0884727,143.92 18.0004727,144.832 18.0004727,145.957 C18.0004727,147.084 17.0884727,147.994 15.9634727,147.994 L15.9634727,147.994 L15.9634727,147.994 L15.9634727,147.994 Z M23.6254727,142.221 C23.6254727,142.439 23.4474727,142.615 23.2314727,142.615 L8.69847266,142.615 C8.48147266,142.615 8.30347266,142.439 8.30347266,142.221 L8.30347266,126.015 C8.30347266,125.797 8.48147266,125.621 8.69847266,125.621 L23.2314727,125.621 C23.4474727,125.621 23.6254727,125.797 23.6254727,126.015 L23.6254727,142.221 L23.6254727,142.221 Z M23.6254727,142.221" id="ipad--white" fill="#206FAC" sketch:type="MSShapeGroup"></path>
        <path d="M24.3234727,82 L7.60647266,82 C6.14547266,82 4.95947266,83.183 4.95947266,84.646 L4.95947266,106.654 C4.95947266,108.115 6.14547266,109.301 7.60647266,109.301 L24.3234727,109.301 C25.7834727,109.301 26.9674727,108.115 26.9674727,106.654 L26.9674727,84.646 C26.9674727,83.183 25.7834727,82 24.3234727,82 L24.3234727,82 L24.3234727,82 L24.3234727,82 Z M15.9634727,107.994 C14.8384727,107.994 13.9284727,107.084 13.9284727,105.957 C13.9284727,104.832 14.8384727,103.92 15.9634727,103.92 C17.0884727,103.92 18.0004727,104.832 18.0004727,105.957 C18.0004727,107.084 17.0884727,107.994 15.9634727,107.994 L15.9634727,107.994 L15.9634727,107.994 L15.9634727,107.994 Z M23.6254727,102.221 C23.6254727,102.439 23.4474727,102.615 23.2314727,102.615 L8.69847266,102.615 C8.48147266,102.615 8.30347266,102.439 8.30347266,102.221 L8.30347266,86.015 C8.30347266,85.797 8.48147266,85.621 8.69847266,85.621 L23.2314727,85.621 C23.4474727,85.621 23.6254727,85.797 23.6254727,86.015 L23.6254727,102.221 L23.6254727,102.221 Z M23.6254727,102.221" id="ipad--subdued-grey" fill="#FFFFFF" sketch:type="MSShapeGroup"></path>
        <path d="M24.3234727,42 L7.60647266,42 C6.14547266,42 4.95947266,43.183 4.95947266,44.646 L4.95947266,66.654 C4.95947266,68.115 6.14547266,69.301 7.60647266,69.301 L24.3234727,69.301 C25.7834727,69.301 26.9674727,68.115 26.9674727,66.654 L26.9674727,44.646 C26.9674727,43.183 25.7834727,42 24.3234727,42 L24.3234727,42 L24.3234727,42 L24.3234727,42 Z M15.9634727,67.994 C14.8384727,67.994 13.9284727,67.084 13.9284727,65.957 C13.9284727,64.832 14.8384727,63.92 15.9634727,63.92 C17.0884727,63.92 18.0004727,64.832 18.0004727,65.957 C18.0004727,67.084 17.0884727,67.994 15.9634727,67.994 L15.9634727,67.994 L15.9634727,67.994 L15.9634727,67.994 Z M23.6254727,62.221 C23.6254727,62.439 23.4474727,62.615 23.2314727,62.615 L8.69847266,62.615 C8.48147266,62.615 8.30347266,62.439 8.30347266,62.221 L8.30347266,46.015 C8.30347266,45.797 8.48147266,45.621 8.69847266,45.621 L23.2314727,45.621 C23.4474727,45.621 23.6254727,45.797 23.6254727,46.015 L23.6254727,62.221 L23.6254727,62.221 Z M23.6254727,62.221" id="ipad--body-grey" fill="#67737B" sketch:type="MSShapeGroup"></path>
        <path d="M24.3234727,2 L7.60647266,2 C6.14547266,2 4.95947266,3.183 4.95947266,4.646 L4.95947266,26.654 C4.95947266,28.115 6.14547266,29.301 7.60647266,29.301 L24.3234727,29.301 C25.7834727,29.301 26.9674727,28.115 26.9674727,26.654 L26.9674727,4.646 C26.9674727,3.183 25.7834727,2 24.3234727,2 L24.3234727,2 L24.3234727,2 L24.3234727,2 Z M15.9634727,27.994 C14.8384727,27.994 13.9284727,27.084 13.9284727,25.957 C13.9284727,24.832 14.8384727,23.92 15.9634727,23.92 C17.0884727,23.92 18.0004727,24.832 18.0004727,25.957 C18.0004727,27.084 17.0884727,27.994 15.9634727,27.994 L15.9634727,27.994 L15.9634727,27.994 L15.9634727,27.994 Z M23.6254727,22.221 C23.6254727,22.439 23.4474727,22.615 23.2314727,22.615 L8.69847266,22.615 C8.48147266,22.615 8.30347266,22.439 8.30347266,22.221 L8.30347266,6.015 C8.30347266,5.797 8.48147266,5.621 8.69847266,5.621 L23.2314727,5.621 C23.4474727,5.621 23.6254727,5.797 23.6254727,6.015 L23.6254727,22.221 L23.6254727,22.221 Z M23.6254727,22.221" id="ipad--title-grey" fill="#3A434E" sketch:type="MSShapeGroup"></path>
    </g>
</svg>

<svg width="32" height="232" viewBox="0 0 32 232" xmlns="http://www.w3.org/2000/svg" xmlns:sketch="http://www.bohemiancoding.com/sketch/ns"><title>ipad</title><g sketch:type="MSPage" fill="none"><path d="M24.323 122h-16.717c-1.461 0-2.647 1.183-2.647 2.646v22.008c0 1.461 1.186 2.647 2.647 2.647h16.717c1.46 0 2.644-1.186 2.644-2.647v-22.008c0-1.463-1.184-2.646-2.644-2.646zm-8.36 25.994c-1.125 0-2.035-.91-2.035-2.037 0-1.125.91-2.037 2.035-2.037s2.037.912 2.037 2.037c0 1.127-.912 2.037-2.037 2.037zm7.662-5.773c0 .218-.178.394-.394.394h-14.533c-.217 0-.395-.176-.395-.394v-16.206c0-.218.178-.394.395-.394h14.533c.216 0 .394.176.394.394v16.206zm0 0" fill="#206FAC" sketch:type="MSShapeGroup"/><path d="M24.323 82h-16.717c-1.461 0-2.647 1.183-2.647 2.646v22.008c0 1.461 1.186 2.647 2.647 2.647h16.717c1.46 0 2.644-1.186 2.644-2.647v-22.008c0-1.463-1.184-2.646-2.644-2.646zm-8.36 25.994c-1.125 0-2.035-.91-2.035-2.037 0-1.125.91-2.037 2.035-2.037s2.037.912 2.037 2.037c0 1.127-.912 2.037-2.037 2.037zm7.662-5.773c0 .218-.178.394-.394.394h-14.533c-.217 0-.395-.176-.395-.394v-16.206c0-.218.178-.394.395-.394h14.533c.216 0 .394.176.394.394v16.206zm0 0" fill="#fff" sketch:type="MSShapeGroup"/><path d="M24.323 42h-16.717c-1.461 0-2.647 1.183-2.647 2.646v22.008c0 1.461 1.186 2.647 2.647 2.647h16.717c1.46 0 2.644-1.186 2.644-2.647v-22.008c0-1.463-1.184-2.646-2.644-2.646zm-8.36 25.994c-1.125 0-2.035-.91-2.035-2.037 0-1.125.91-2.037 2.035-2.037s2.037.912 2.037 2.037c0 1.127-.912 2.037-2.037 2.037zm7.662-5.773c0 .218-.178.394-.394.394h-14.533c-.217 0-.395-.176-.395-.394v-16.206c0-.218.178-.394.395-.394h14.533c.216 0 .394.176.394.394v16.206zm0 0" fill="#67737B" sketch:type="MSShapeGroup"/><path d="M24.323 2h-16.717c-1.461 0-2.647 1.183-2.647 2.646v22.008c0 1.461 1.186 2.647 2.647 2.647h16.717c1.46 0 2.644-1.186 2.644-2.647v-22.008c0-1.463-1.184-2.646-2.644-2.646zm-8.36 25.994c-1.125 0-2.035-.91-2.035-2.037 0-1.125.91-2.037 2.035-2.037s2.037.912 2.037 2.037c0 1.127-.912 2.037-2.037 2.037zm7.662-5.773c0 .218-.178.394-.394.394h-14.533c-.217 0-.395-.176-.395-.394v-16.206c0-.218.178-.394.395-.394h14.533c.216 0 .394.176.394.394v16.206zm0 0" fill="#3A434E" sketch:type="MSShapeGroup"/></g></svg>
